X:1
T:Pianotrio No. 1 in Es
T:Pianotrio No. 1 in Es
T:Opus 1
T:Ludwig Van Beethoven
C:Ludwig Van Beethoven
%%score 1 2 { ( 3 5 ) | ( 4 6 ) }
L:1/8
Q:1/4=50
M:3/4
K:Ab
V:1 treble nm="Viool" snm="Vl."
V:2 bass nm="Cello" snm="Vc."
V:3 treble nm="Piano" snm="Pno."
V:5 treble 
V:4 bass 
V:6 bass 
V:1
"^Adagio cantabile" z2 | z6 | z6 | z6 | z6 | z6 | z6 | z6 | z2 z2 z z/!p! E/ | .d z .B z z2 | %10
 .e z .c z z2 | .a z .f z =d z | (e3 f/e/ d/c/d/B/) | (.A2 .A2) (AB/c/) | (d>e) f3 A | %15
 (GB/A/) (Ac/B/) (Bd/c/) | (d>c) (B3 =B) | (c2 d2 e2) | (f3/2{gf=e}f/) (ba gf) | %19
 (e3/2{gf=e}f/) (A2 c/B/A/B/) | (B2 A) z z2 | z6 | (b3 c'/b/ a/g/f/e/) | (c'>a f2) z2 | %24
 (f3 g/f/ =e/f/g/a/) | (b3 e' gb | eg B) z z2 | (a3 c' fa | =df B) z z2 | z6 | %30
 z2 z (c'/b/) (b/a/g/f/) | .g z .=d z .e z | (c>A) (F3 G/A/) | (B>A) G2 (F>B) | %34
 (A2- A/G/).A/.B/ (.c/.=d/.e/.f/) |!<(! .g(a/g/) z (e/=d/)!<)!!mf!!>(! z (f/e/)!>)! | %36
!p! z2 (c/=B/c/A/) (FG/A/) | (B>A) (GB- B/A/G/F/) | E2 z2!pp! (B/=A/B/G/) | .c2 z2 (e/=d/e/c/) | %40
 .B(F/E/) EE E2- | E(F/E/) EE E2 | [B,G]6 | [CA]2 z4 | z6 | z6 | z6 | z6 | z6 | z6 | z6 | %51
!pp! (._C.C .C.C .C.C) | (.B,.B, .B,.B, .B,.B,) | (.B,.B, .B,.B, .B,.B,) | _C z z4 | e2 (e3 b) | %56
 (b>_c') c'3 e |({=def} ed) b3 a- | a (_g2!<(! f2 =e)!<)! | f2 z (F CA, | G,) z z (B dB) | %61
 G z z (G B=e) | f2 z2 (F/A/d/f/) | _g2- g/(f/e/d/ c/B/A/_G/) |!<(! F2 (.f2 .f2) | _g3 (g fe) | %66
 d>c B2{/g} (f/=e/f/!<)!g/) | a A2 G2 F | (=E/G/F/E/ =D/C/=B,/C/) (D>F) | %69
 (=E/g/f/=e/ =d/c/=B/c/) (d3/2e/4f/4) |!ff! .=e/.G,/.C/.=E/ .G/.C/.E/.G/ .c/.E/.G/.c/ | %71
 .=e/.G/.c/.e/ .g/.c/.e/.g/ .c'/.g/.e/.g/ | c2 z2!pp! [C=E]2 | [C=E]4 [CE]2 | [C=E]6- | [CE]2 z4 | %76
 z6 | z6 | z6 | z6 | z6 | z6 | z6 | z6 | z6 | z6 | z2 z2!p! (B/c/d/=d/) | e z z2 (e/=e/f/g/) | %88
 a4- a/(c'/b/a/) | (a/g/f/e/ =d/e/f/e/ _d/c/d/B/) | (.A2 .A2) (AB/c/) | %91
 (d3/2{edcd}e/) f2 (e/d/c/B/) | (AG/B/) (B/A/)(A/c/) (c/B/)(e/d/) | (dTc) (B3 =B-) | B c2 d2 e- | %95
 e(=e- e/f/g/a/ b/a/g/f/) | (e/=e/f/d/) c3/2{dcB}c/ (_e/d/c/B/) | A2 z2 (E/=D/E/C/) | %98
 F2 z2 (F/=E/F/D/) | _G2 z2 (G/F/G/E/) | F2 z2 B2 | %101
 c z/!<(! (e/ d/c/B/!<)!A/!mf! G/!>(!F/E/D/)!>)! |!p! (CE!p! F2 D2) | C(B,/A,/) A,A, A,2- | %104
 A,(B,/A,/) A,A, A,2- | A,!<(!(B,/=A,/) A,A,!<)! (A,2 |!p! B,2) z4 | z6 |!pp! a6- | %109
!<(! (ag) (.g.g) (g=a)!<)! | (c' b2 a2 g | a2) z2!p! _g2 | (f>e) .d(f/e/ d/c/B/A/) | G3 G GG | %114
 (A>B) c z z2 | (Ac/B/) (Bd/c/) (ce/d/) | (d>e) f2 z2 | z (f/e/ d/c/B/A/) (G>B) | %118
 A z!pp! (c>A G) z | z (c/=B/ c/B/c/A/) (G3/2A/4_B/4) | A2 z4 | z2 z2!pp!"^pizz." [Ec]2 | %122
 [Ec]2 z4 | z6 |] %124
V:2
 z2 | z6 | z6 | z6 | z6 | z6 | z6 | z6 | z6 |!p! .E, z .D, z z2 | .C, z .A,, z z2 | %11
 .F, z .A, z B, z | .E, z .E,, z z2 | (A,4 _G,2 | F,2 D,2) z2 | (D,2 C,2 G,2) | (A,2 E,2) z2 | %17
 (A,2 B,2 C2) | D2 D,2 z D, | (C,D, E,2) E,,2 | (A,,2 A,) z (G,>A,) | (B,3 E G,B,) | %22
 (E,G, B,,) z z2 | (A,3 C F,A,) | (=D,F, B,,) z z2 | z6 | (B,3 C/B,/ A,/G,/F,/E,/) | %27
 (C>A, F,2) z2 | (B,3 C/B,/) (B,/A,/G,/F,/) | G, z z (C/B,/) (B,/A,/G,/F,/) | G, z z4 | z6 | z6 | %33
 z6 | z6 |!<(! (B,4-!<)!!mf!!>(! B,>=B,)!>)! |!p! (C/=B,/C/A,/) F,2- F,/(=D,/E,/F,/) | %37
 (G,>F,) (E,G,- G,/F,/E,/=D,/) | E,2 z2!pp! (G,/^F,/G,/E,/) | .A,2 z2 (C/=B,/C/A,/) | .G, z z4 | %41
 z4 z!p! C | (D6 | C2) z4 | z6 | z6 | z6 | z6 | z6 | z4 z!pp! G, | (.A,.A, .A,.A, .A,.A,) | %51
 (.A,.A, .A,.A, .A,.A,) | (.A,.A, .A,.A, .A,.A,) | (.G,.G, .G,.G, .G,.G,) | A,A,, (A,,B,,) B,,B,, | %55
!p! E,2 z4 | z6 | z6 | z6 | F,2 (F,3 C) | (C>D) D3 F, |{=E,F,G,} (F,E,) (C3 B,) | A,2 z4 | z6 | %64
 D,6 |!<(! C,4 C,2 | D,4!<)! D,2 | =D,6 | (C,=E, G,C =B,A,) | (G,=E, G,C =B,A,) | %70
 G, z z/!ff! .C,,/.=E,,/.G,,/ .C,/.E,,/.G,,/.C,/ | %71
 .=E,/.G,,/.C,/.E,/ .G,/.C,/.E,/.G,/ .C/.G,/.E,/.G,/ | C,2 z2!pp! [C,,G,,]2 | [C,,G,,]4 [C,,G,,]2 | %74
 [C,,G,,]6- | [C,,G,,]2 z4 | z6 | z6 | z6 | z6 | z6 | z6 | z6 | z6 | z6 | z6 |!p! .E, z .D, z z2 | %87
 .C, z .A,, z z2 | .F, z .A, z .B, z | .E, z .E,, z z2 | (A,4 _G,2 | F,2 D,2) z2 | (D,2 C,2 G,2) | %93
 (A,2 E,2) z2 | (A,2 B,2 C2) | D2 D,2 z D, | (C,D, E,F, D,E,) | A,,2 z4 | z6 | z6 | z6 | %101
 z2 z/!<(! C/B,/!<)!A,/!mf!!>(! G,/F,/E,/!>)!!p!D,/ | C,C,!p! (D,2 E,2 | %103
 A,,2) z2!pp! (C,/=B,,/C,/A,,/) | .D,2 z2 (D,/C,/D,/B,,/) | .E,2 z2 (E,/!p!=D,/E,/C,/) | _D,2 z4 | %107
 z6 | z6 |!<(! (=D_D) (.D.D) (DC)!<)! | D2 E2 E,2 |!p! A,2 A,2 (A,B,/C/) | (D>E F2) z2 | z6 | %114
 z2 z (A,, C,E,) | (A,2 G,2 _G,2) | F,2 z (.D, .D,.D,) |!pp! (D,E, D,E, D,E,) | (C,E, C,E, D,E,) | %119
 (C,E, C,E, D,E,) | C,2 z4 | z2 z2!pp!"^pizz." A,2 | A,2 z4 | z6 |] %124
V:3
 z/!p! (c/d/B/) | (.A2 .A2) (AB/c/) | (d>e) f3 A | (G>B) (A>c) (B>d) | (d>c) (B3 =B) | %5
 (c2 d2 [Ae]2) | (f3/2{gf=e}f/) (ba gf) | (e3/2{f=ede}f/) (A2 c/B/A/B/) | ([DB]2 [CA]) z z2 | %9
 .[B,EG] z .[B,EG] z z2 | .[CEA] z .[CEA] z z2 | .[CFA] z .[CFA] z [=DFA] z | .[EG] z .E z z2 | %13
 ([CE]A, [CE]A, [CE]A,) | ([DF]A, [DF]A, [DF]A,) | z [B,EG] z [CEA] z [DEB] | %16
 z ([CEA] [B,EG])E [DE][DE] | ([CE]A, [DG]A, [E_G]A,) | ([DF]A, [DF]A, [DF]A,) | (EF A2 G2) | %20
 z ([DG] [CA]) z z2 | z [B,EG] [B,EG][B,EG] [B,EG][B,EG] | z [B,EB] [B,EB][B,EB] [B,EB][B,EB] | %23
 z [CEB] [CEB][CEA] z [CEFc] | z [B,=DF] [B,DF][B,DF] z [B,DF] | %25
 z/ (b/e/g/) z/ (g/B/e/) z/ (e/G/B/) | z/ (B/E/G/) z/ (E/G/B/ e/B/e/g/) | %27
 z/ (a/c/f/) z/ (f/A/c/) z/ (c/F/A/) | z/ (=d/F/A/) z/ (e/F/A/) z/ (f/F/A/) | %29
 z/ (G/B/e/ g/e/B/G/) [FA]2 | z/4 G/4A/4B/4c/4=d/4e/4f/4 g/4f/4e/4d/4c/4B/4A/4G/4 [AB]2 | %31
 G z A z B z | [Ec]2 ([=DF]3 [EG]/[FA]/) | ([GB]>[FA]) z [EG] z [=DF] | %34
 z [=DF-] (F/E/).F/.G/ (.A/.B/.c/.=d/) | f[G,B,E] z [A,B,=D] z [G,B,E] | z [CE] z4 | %37
 ([G,B,]>[F,A,]) [E,G,][G,B,E] z [A,B,=D] | [G,B,E]E EE E2- | EE EE E2- | E z z2 (B/=A/B/G/) | %41
 c z z2 (e/=d/e/c/) |!<(! (e/d/c/B/ A/G/F/!<)!E/!mf! =D/!>(!E/F/!>)!G/) |!p! x6 | z6 | z6 | z6 | %47
 z6 | z6 | z6 | z6 | z6 | z6 | z6 | z6 | z6 | z6 | z6 | z6 | z6 | z6 | z6 | z6 | z6 | z6 | z6 | %66
 z6 | z6 | z6 | z6 | z6 | z6 | z6 | z6 | z6 | z6 | z6 | z6 | z6 | z6 | z6 | z6 | z6 | z6 | z6 | %85
 z6 | z6 | z6 | z6 | z6 | z6 | z6 | z6 | z6 | z6 | z6 | z6 | z6 | z6 | z6 | z6 | z6 | z6 | z6 | %104
 z6 | z6 | z6 | z6 | z6 | z6 | z6 | z6 | z6 | z6 | z6 | %115
 (c/A/E/C/) z (D/4=E/4G/4B/4) z (_E/4_G/4=A/4c/4) | z/ (F/_A/F/ d/A/f/e/ d/c/B/A/) | %117
!pp! G4({BAGABcdefgabc'd'e')} f'>g | a2 z2!p! (f'/=e'/f'/g/) | %119
 a2 z2!pp! f'/4=e'/4f'/4e'/4f'/4e'/4f'/4g/4 | a2 z2!pp! .[ac'] z | [ac'] z z4 | %122
 z2 z2[K:bass] [C,A,]2 | [C,A,]4 z2 |] %124
V:4
 z2 |[K:treble]!ped! ([CE]A, [CE]A, [E_G]A,!ped-up! |!ped! [DF]A, [DF]A, [DF]A,!ped-up! | %3
!ped! [B,D]E CA,[K:bass] G,E!ped-up! | A,E E,E) E z | ([A,EA]2 [B,EG]2 [CE_G]2 | %6
!ped! [DF]2) z (F ED)!ped-up! |!ped! CD EC DG,!ped-up! | z G, A, z z2 | .E, z .D, z z2 | %10
 .C, z .A,, z z2 | .F,, z .A,, z B,, z | .E, z .E,, z z2 | (A,,4 _G,,2 | F,,2 D,,2) z2 | %15
 (D,,2 C,,2 G,,2) | (A,,2 E,,) z z2 | (A,,2 B,,2 C,2) | D,2 D,,2 z D, | (C,D, E,2) E,,2 | %20
 (A,,2 A,) z z2 | [E,,E,]6 | [G,,G,]6 | [F,,F,]4 [A,,A,]2 | B,,4 [A,,A,]2 | %25
!ped! G,, z B,, z E, z!ped-up! |!ped! G, z G,, z z2!ped-up! |!ped! (F,,2 F,2 A,,2) | %28
 (B,,2 C,2 =D,2) | E, z z2 [=D,B,]2!ped-up! | [E,B,] z z2[K:treble] [=DF]2 | E z F z G z | %32
 [A,C]2 [A,B,]4 | ([G,B,]>[A,C]) B, z B, z | _C2 B,3 [B,,A,] | [E,G,] z [F,,F,] z [G,,G,] z | %36
 [A,,A,] z z2 [A,,=D,F,B,]2 | ([G,,D,]>A,,) B,, z [B,,,B,,] z | [E,,E,] z z4 | z6 | %40
 z2 z2 (G,/^F,/G,/E,/) | A, z z2 (C/=B,/C/A,/) | [E,B,]E,, E,,E,, E,,E,, | z6 | z6 | z6 | z6 | z6 | %48
 z6 | z6 | z6 | z6 | z6 | z6 | z6 | z6 | z6 | z6 | z6 | z6 | z6 | z6 | z6 | z6 | z6 | z6 | z6 | %67
 z6 | z6 | z6 | z6 | z6 | z6 | z6 | z6 | z6 | z6 | z6 | z6 | z6 | z6 | z6 | z6 | z6 | z6 | z6 | %86
 z6 | z6 | z6 | z6 | z6 | z6 | z6 | z6 | z6 | z6 | z6 | z6 | z6 | z6 | z6 | z6 | z6 | z6 | z6 | %105
 z6 | z6 | z6 | z6 | z6 | z6 | z6 | z6 | z6 | z6 | [A,,,A,,] z [A,,,A,,] z [A,,,A,,] z | %116
 [A,,,A,,] z ([D,F,]A,, [D,F,]A,,) | ([B,,D,]A,, [B,,D,]A,, [B,,D,]A,,) | %118
 (C,A,, C,A,, [B,,D,]A,,) | (C,A,, C,A,, [B,,D,]A,,) | [A,,C,]2 z4 | z6 | z2 z2 [A,,,A,,]2 | %123
 [A,,,A,,]4 z2 |] %124
V:5
 x2 | x6 | x6 | x6 | A2 G2 z2 | x6 | A2 z4 | x6 | x6 | x6 | x6 | x6 | x6 | x6 | x6 | x6 | x6 | x6 | %18
 x6 | (A,2 CE DE) | x6 | x6 | x6 | x6 | x6 | x6 | x6 | x6 | x6 | x6 | x6 | x6 | x6 | x6 | x6 | x6 | %36
 x6 | x6 | x6 | x6 | x6 | x6 | x6 | x6 | x6 | x6 | x6 | x6 | x6 | x6 | x6 | x6 | x6 | x6 | x6 | %55
 x6 | x6 | x6 | x6 | x6 | x6 | x6 | x6 | x6 | x6 | x6 | x6 | x6 | x6 | x6 | x6 | x6 | x6 | x6 | %74
 x6 | x6 | x6 | x6 | x6 | x6 | x6 | x6 | x6 | x6 | x6 | x6 | x6 | x6 | x6 | x6 | x6 | x6 | x6 | %93
 x6 | x6 | x6 | x6 | x6 | x6 | x6 | x6 | x6 | x6 | x6 | x6 | x6 | x6 | x6 | x6 | x6 | x6 | x6 | %112
 x6 | x6 | x6 | x6 | x6 | x6 | x6 | x6 | x6 | x6 | x4[K:bass] x2 | x6 |] %124
V:6
 x2 |[K:treble] x6 | x6 | x4[K:bass] x2 | x6 | x6 | x6 | z2 E,2 E,2 | A,,3 z z2 | x6 | x6 | x6 | %12
 x6 | x6 | x6 | x6 | x6 | x6 | x6 | x6 | x6 | x6 | x6 | x6 | x6 | x6 | x6 | x6 | x6 | x6 | %30
 x4[K:treble] x2 | x6 | x6 | x6 | x6 | x6 | x6 | x6 | x6 | x6 | x6 | x6 | x6 | x6 | x6 | x6 | x6 | %47
 x6 | x6 | x6 | x6 | x6 | x6 | x6 | x6 | x6 | x6 | x6 | x6 | x6 | x6 | x6 | x6 | x6 | x6 | x6 | %66
 x6 | x6 | x6 | x6 | x6 | x6 | x6 | x6 | x6 | x6 | x6 | x6 | x6 | x6 | x6 | x6 | x6 | x6 | x6 | %85
 x6 | x6 | x6 | x6 | x6 | x6 | x6 | x6 | x6 | x6 | x6 | x6 | x6 | x6 | x6 | x6 | x6 | x6 | x6 | %104
 x6 | x6 | x6 | x6 | x6 | x6 | x6 | x6 | x6 | x6 | x6 | x6 | x6 | x6 | x6 | x6 | x6 | x6 | x6 | %123
 x6 |] %124

